ui/src/style/icons/alert.svg

<svg xmlns="http://www.w3.org/2000/svg" viewBox="0 0 24 24"><path fill="#607d8b" d="M13 14h-2v-4h2m0 8h-2v-2h2M1 21h22L12 2 1 21z"/></svg>

<?xml version="1.0" encoding="UTF-8"?>
<!DOCTYPE svg PUBLIC "-//W3C//DTD SVG 1.1//EN" "http://www.w3.org/Graphics/SVG/1.1/DTD/svg11.dtd">
<svg xmlns="http://www.w3.org/2000/svg" xmlns:xlink="http://www.w3.org/1999/xlink" version="1.1" viewBox="0 0 24 24">
   <path fill="#607d8b" d="M13,14H11V10H13M13,18H11V16H13M1,21H23L12,2L1,21Z" />
</svg>
